X:1
T:Angelus ad pastores ait
T:Andrea Gabrieli
T:The angel said to the shepherds: "I bring you tidings of great joy, for the Saviour of the world has been born to you today.' Alleluia.
T:Angelus ad pastores ait
C:Andrea Gabrieli
Z:The angel said to the shepherds:
Z:"I bring you tidings of great joy,
Z:for the Saviour of the world
Z:has been born to you today.'
Z:Alleluia.
%%score [ 1 2 3 4 ]
L:1/8
Q:1/4=80
M:4/4
K:G
V:1 treble-8 nm="Soprano" snm="Soprano"
V:2 treble nm="Alto" snm="Alto"
V:3 treble-8 transpose=-12 nm="Tenor" snm="Tenor"
V:4 bass nm="Bass" snm="Bass"
V:1
 z4 B4- | B2 B2 E2 B2- | B2 B2 A2 G2 | F4 E4- | E4 z4 | z8 | z8 | F4 G3 F | G2 A2 B4 | z8 | %10
w: An-|* ge- lus ad|_ pa- sto- res|a- it:|_|||an- nun- ti-|o vo- bis||
 z2 d3 d B2 | (AG G4 F2) | G4 z4 | z4 z2 d2 | B3 A F2 G2 | F2 d3 d B2 | (^cB B4 ^A2) | B2 B4 G2 | %18
w: gau- di- um|ma- * * *|gnum,|an-|nun- ti- o vo-|bis gau- di- um|ma- * * *|gnum, qui- a|
 A2 B2 G4 | z8 | z2 B4 G2 | A2 B2 G4 | F4 G4 | F2 G2 E4 | z4 d4- | d2 B2 ^c2 d2 | B4 A2 F2- | %27
w: na- tus est,||qui- a|na- tus est|vo- bis|ho- di- e,|qui-|* a na- tus|est vo- bis|
 F2 B4 ^A2 | B2 B2 =c4- | c2 c2 (BA A2- | A2 ^G2) A2 F2 | G6 G2 | (FE E4 ^D2) | E2 B2 d2 =c2 | %34
w: _ ho- di-|e sal- va-|* tor mun- * *|* * di, sal-|va- tor|mun- * * *|di, al- le- lu-|
 B4 z4 | z2 B2 d2 c2 | B2 B2 A2 E2 | B2 d4 A2 | GF/E/ F3 E E2- | E2 ^D2 E2 B2 | d2 =c2 B4 | %41
w: ia,|al- le- lu-|ia, al- le- lu-|ia, al- le-|lu- * * * * *|* * ia, al-|le- lu- ia,|
 z4 z2 B2 | d2 c2 B2 B2 | A2 E2 B2 d2- | d2 A2 GF/E/ F2- | FE E4 ^D2 | E8 |] %47
w: al-|le- lu- ia, al-|le- lu- ia, al-|* le lu- * * *||ia.|
V:2
 E6 E2 | B,2 E4 E2 | G4 F2 E2- | (E2 ^D2) E2 G2- | G2 G2 (=D3 E | F2) D2 E4 | ^C4 z4 | z8 | %8
w: An- ge-|lus ad pa-|sto- res a-|* * it, ad|_ pa- sto- *|* res a-|it:||
 z4 z2 D2 | A,3 B, D2 ^C2 | D4 D3 D | E4 D4 | B,8 | z4 z2 F2 | G3 F D2 E2 | D4 F3 F | G4 F4- | %17
w: an-|nun- ti- o vo-|bis gau- di-|um ma-|gnum,|an-|nun- ti- o vo-|bis gau- di-|um ma-|
 (F2 ED E4) | D4 z4 | z2 D4 B,2 | ^C2 B,2 B,4 | D2 B,4 E2- | E2 ^D2 E4 | z2 B,4 ^C2 | %24
w: |gnum,|qui- a|na- tus est|vo- bis ho-|* di- e,|qui- a|
 B,2 B,2 B,2 F2- | F2 ^G2 A2 F2 | =G4 F2 B,2 | D4 ^C4 | B,2 B,2 G4- | G2 G2 F4 | (E3 D ^C2) D2 | %31
w: na- tus est, qui-|* a na- tus|est vo- bis|ho- di-|e sal- va-|* tor mun-|di, _ _ sal-|
 D6 D2 | ^C4 B,4 | z2 G2 F2 E2 | G2 E2 D2 A,2 | E2 G2 F2 E2 | G4 F2 A2 | G2 F4 E2 | %38
w: va- tor|mun- di,|al- le- lu-|ia, al- le- lu-|ia, al- le- lu-|ia, al- le-|lu- ia, al-|
 (D3 ^C B,2) B,2 | B,4 z2 G2 | F2 E2 G2 E2 | D2 A,2 E2 G2 | F2 E2 G4 | F2 A2 G2 F2- | %44
w: le- * * lu-|ia, al-|le- lu- ia, al-|le- lu- ia, al-|le- lu- ia,|al- le- lu- ia,|
 F2 E2 (D3 ^C | B,4) B,4 | B,8 |] %47
w: _ al- le- *|* lu-|ia.|
V:3
 z8 | z8 | z8 | B6 B2 | E2 B4 B2 | d4 ^c2 B2- | (B2 ^A2) B4 | z2 B2 e3 d | B2 =c2 B4 | z8 | %10
w: |||An- ge-|lus ad pa-|sto- res a-|* * it:|an- nun- ti-|o vo- bis||
 A3 A B4 | (c3 B A4) | G2 E2 G3 F | G2 A2 B4 | z8 | B3 B d4 | (e3 d ^c4) | B4 z4 | z2 B4 G2 | %19
w: gau- di- um|ma- * *|gnum, an- nun- ti-|o vo- bis||gau- di- um|ma- * *|gnum,|qui- a|
 A2 B2 G4 | F4 G4 | F2 G2 E4 | z2 B4 G2 | A2 B2 G2 A2- | A2 G2 F2 B2 | B4 z2 B2- | B2 G2 (d3 ^c | %27
w: na- tus est|vo- bis|ho- di- e,|qui- a|na- tus est, qui-|* a na- tus|est vo-|* bis ho- *|
 B4) F4 | B2 d2 e4- | e2 e2 (d3 =c | B4) A2 A2 | B6 B2 | (A3 G F4) | E2 e2 d2 A2 | e2 B4 d2 | %35
w: * di-|e sal- va-|* tor mun- *|* di, sal-|va- tor|mun- * *|di, al- le- lu-|ia, al- le-|
 (GABG A4) | G2 B2 d2 c2 | B2 B2 A2 E2 | B2 F2 G4 | F4 E2 e2 | d2 A2 e2 B2- | B2 d2 (GABG | %42
w: lu- * * * *|ia, al- le- lu-|ia, al- le- lu-|ia, al- le-|lu- ia, al-|le- lu- ia, al-|* le- lu- * * *|
 A4) G2 B2 | d2 c2 B2 B2 | A2 E2 B2 F2 | G4 F4 | E8 |] %47
w: * ia, al-|le- lu- ia, al-|le- lu- ia, al-|le- lu-|ia.|
V:4
 z8 | z8 | z8 | z4 E,4- | E,2 E,2 B,,2 B,2- | B,2 B,2 A,2 G,2 | F,4 B,,4- | B,,4 z4 | z4 G,4 | %9
w: |||An-|* ge- lus ad|_ pa- sto- res|a- it:|_|an-|
 F,3 G, F,2 E,2 | D,4 G,3 G, | C,4 D,4 | G,,2 G,2 E,3 D, | B,,2 C,2 B,,4 | z8 | z4 B,3 B, | %16
w: nun- ti o vo-|bis gau- di-|um ma-|gnum, an- nun- ti-|o vo- bis||gau- di-|
 E,4 F,4 | B,,2 G,4 E,2 | F,2 G,2 E,4 | D,2 B,,4 E,2- | E,2 ^D,2 E,4 | z2 E,4 G,2 | A,2 B,2 E,4 | %23
w: um ma-|gnum, qui- a|na- tus est|vo- bis ho-|* di- e,|qui- a|na- tus est,|
 z2 E,4 ^C,2 | D,2 E,2 B,,4 | D,2 E,2 A,,2 B,,2 | E,4 z4 | z8 | z2 G,2 C,4- | C,2 C,2 (D,4 | %30
w: qui- a|na- tus est|vo- bis ho- di-|e||sal- va-|* tor mun-|
 E,4) A,,2 D,2 | G,,6 G,,2 | (A,,4 B,,4) | E,4 z4 | z2 E,2 G,2 F,2 | E,2 E,2 D,2 A,,2 | E,4 z4 | %37
w: * di, sal-|va- tor|mun- *|di,|al- le- lu-|ia, al- le- lu-|ia,|
 z2 B,,2 D,2 C,2 | B,,2 B,,2 (G,,3 A,, | B,,2) B,,2 E,4 | z4 z2 E,2 | G,2 F,2 E,2 E,2 | %42
w: al- le- lu-|ia, al- le- *|* lu- ia,|al-|le- lu- ia, al-|
 D,2 A,,2 E,4 | z4 z2 B,,2 | D,2 C,2 B,,2 B,,2 | (G,,3 A,, B,,2) B,,2 | E,8 |] %47
w: le- lu- ia,|al-|le- lu- ia, al-|le- * * lu-|ia.|

